X:190
T: A Trip to Nenagh
B: Tune Compendium aus Frankreich
M:4/4
L:1/8
K:EMinor
dcAG FA D2 | A,DFA dcAG | Ad d2 A=fed |c2 Gc EcGE|
dcAG FA D2 | A,DFA dcAG | Ad d2 AdFA | GB,EG FD D2 :|
K:Amixolydian
Ad d2 adfa | gfed caec | d2 AG FA D2 | E/2F/2GAB =c2 AG |
Ad d2 fded  |cdef gefg | a2 ea caec | dBAG FD D2 :|
